public/icons/etherium1.svg

<svg width="76" height="52" viewBox="0 0 76 52" fill="none" xmlns="http://www.w3.org/2000/svg">
<path d="M6.8643 43.1366C6.8643 43.3035 6.72402 43.4394 6.55647 43.4394H0.625901C0.773971 44.8988 1.8767 46.2301 3.42753 46.2301C4.4874 46.2301 5.2745 45.8264 5.86678 44.9842C5.9525 44.8677 6.08109 44.794 6.24475 44.8638C6.33437 44.9027 6.39671 44.9842 6.4123 45.0773C6.42788 45.1744 6.40061 45.2287 6.37333 45.283C5.77716 46.3194 4.58871 46.8278 3.42363 46.8278C1.42859 46.8278 0.00634766 45.0501 0.00634766 43.1483C0.00634766 41.2464 1.42859 39.4687 3.42363 39.4687C5.41867 39.4648 6.8604 41.2386 6.8643 43.1366ZM6.22916 42.8494C6.10057 41.39 4.97836 40.0587 3.42753 40.0587C1.8767 40.0587 0.773971 41.39 0.625901 42.8494H6.22916ZM14.0613 39.6123C14.2327 39.6123 14.3574 39.7598 14.3574 39.9073C14.3574 40.0781 14.2288 40.2023 14.0613 40.2023H12.4715V46.4164C12.4715 46.5639 12.3429 46.7114 12.1753 46.7114C12.0039 46.7114 11.8792 46.5639 11.8792 46.4164V40.2023H10.3517C10.1803 40.2023 10.0556 40.0742 10.0556 39.9073C10.0556 39.7598 10.1842 39.6123 10.3517 39.6123H11.8792V37.3378C11.8792 37.1942 11.9766 37.0622 12.1169 37.0389C12.3156 37.0079 12.4715 37.1437 12.4715 37.33V39.6123H14.0613ZM23.7598 42.6165V46.3815C23.7598 46.5523 23.6117 46.6765 23.4637 46.6765C23.2922 46.6765 23.1675 46.5484 23.1675 46.3815V42.6165C23.1675 41.3473 22.4467 40.0781 21.0244 40.0781C19.2008 40.0781 18.4137 41.6656 18.5189 43.2919C18.5189 43.3346 18.5384 43.5248 18.5384 43.5442V46.3698C18.5384 46.5134 18.441 46.6454 18.3007 46.6687C18.102 46.6998 17.9461 46.5639 17.9461 46.3776V34.0114C17.9461 33.8639 18.0747 33.7164 18.2423 33.7164C18.4137 33.7164 18.5384 33.8639 18.5384 34.0114V41.0096C19.0489 40.1014 19.9606 39.4881 21.0205 39.4881C22.7623 39.4881 23.7598 41.0096 23.7598 42.6165ZM34.3935 43.1366C34.3935 43.3035 34.2532 43.4394 34.0857 43.4394H28.1512C28.2993 44.8988 29.402 46.2301 30.9529 46.2301C32.0127 46.2301 32.7998 45.8264 33.3921 44.9842C33.4778 44.8677 33.6064 44.794 33.7701 44.8638C33.8597 44.9027 33.922 44.9842 33.9376 45.0773C33.9532 45.1744 33.9259 45.2287 33.8987 45.283C33.3025 46.3194 32.114 46.8278 30.949 46.8278C28.9539 46.8278 27.5317 45.0501 27.5317 43.1483C27.5317 41.2464 28.9539 39.4687 30.949 39.4687C32.9479 39.4648 34.3896 41.2386 34.3935 43.1366ZM33.7545 42.8494C33.6259 41.39 32.5037 40.0587 30.9529 40.0587C29.402 40.0587 28.2993 41.39 28.1512 42.8494H33.7545ZM41.6723 39.8879C41.6723 40.0781 41.5671 40.1829 41.3956 40.2062C39.6539 40.4584 38.8707 41.8752 38.8707 43.5248V46.3504C38.8707 46.494 38.7733 46.626 38.633 46.6493C38.4343 46.6803 38.2784 46.5445 38.2784 46.3582V39.9189C38.2784 39.7753 38.3758 39.6433 38.5161 39.6201C38.7148 39.589 38.8707 39.7249 38.8707 39.9112V41.2231C39.3577 40.4002 40.3358 39.6162 41.3528 39.6162C41.5008 39.6123 41.6723 39.721 41.6723 39.8879ZM51.4137 43.1366C51.4137 43.3035 51.2734 43.4394 51.1059 43.4394H45.1753C45.3234 44.8988 46.4261 46.2301 47.9769 46.2301C49.0368 46.2301 49.8239 45.8264 50.4162 44.9842C50.5019 44.8677 50.6305 44.794 50.7942 44.8638C50.8838 44.9027 50.9461 44.9842 50.9617 45.0773C50.9773 45.1744 50.95 45.2287 50.9227 45.283C50.3266 46.3194 49.1381 46.8278 47.973 46.8278C45.978 46.8278 44.5558 45.0501 44.5558 43.1483C44.5558 41.2464 45.978 39.4687 47.973 39.4687C49.9681 39.4648 51.4098 41.2386 51.4137 43.1366ZM50.7786 42.8494C50.65 41.39 49.5278 40.0587 47.9769 40.0587C46.4261 40.0587 45.3234 41.39 45.1753 42.8494H50.7786ZM60.9876 39.9616V46.4164C60.9876 46.5872 60.8395 46.7114 60.6914 46.7114C60.52 46.7114 60.3953 46.5833 60.3953 46.4164V45.1899C59.9082 46.1641 59.0354 46.8589 57.9327 46.8589C56.1714 46.8589 55.1934 45.3374 55.1934 43.7305V39.9461C55.1934 39.7986 55.322 39.6511 55.4895 39.6511C55.661 39.6511 55.7856 39.7986 55.7856 39.9461V43.7305C55.7856 44.9997 56.5065 46.2689 57.9288 46.2689C59.9238 46.2689 60.3914 44.4097 60.3914 42.3565V39.9461C60.3914 39.7753 60.5628 39.6007 60.7733 39.6628C60.9018 39.7054 60.9876 39.8297 60.9876 39.9616ZM75.9893 42.5932V46.3776C75.9893 46.5484 75.8413 46.6726 75.6932 46.6726C75.5217 46.6726 75.397 46.5445 75.397 46.3776V42.5932C75.397 41.324 74.6762 40.0781 73.2539 40.0781C71.4693 40.0781 70.7913 41.98 70.7913 43.4588V46.3776C70.7913 46.5484 70.6432 46.6726 70.4952 46.6726C70.3237 46.6726 70.199 46.5445 70.199 46.3776V42.5932C70.199 41.324 69.4782 40.0781 68.0559 40.0781C66.2518 40.0781 65.5076 41.4948 65.5738 43.3773C65.5738 43.42 65.5933 43.5054 65.5738 43.5248V46.3698C65.5738 46.5134 65.4764 46.6454 65.3322 46.6687C65.1335 46.6998 64.9776 46.5639 64.9776 46.3776V39.9189C64.9776 39.7753 65.0751 39.6433 65.2153 39.6201C65.4141 39.589 65.5699 39.7249 65.5699 39.9112V40.9902C66.0804 40.0819 66.9922 39.4881 68.052 39.4881C69.26 39.4881 70.1951 40.2488 70.577 41.3706C71.0641 40.2721 72.0187 39.4881 73.25 39.4881C74.9918 39.4881 75.9893 40.9863 75.9893 42.5932Z" fill="#8D8D8D"/>
<g opacity="0.6">
<path d="M38.0017 11.8927L28.0889 16.3835L38.0017 22.2172L47.9107 16.3835L38.0017 11.8927Z" fill="#878787"/>
</g>
<g opacity="0.45">
<path d="M28.0889 16.3835L38.0017 22.2172V0L28.0889 16.3835Z" fill="#878787"/>
</g>
<g opacity="0.8">
<path d="M38.002 0V22.2172L47.9109 16.3835L38.002 0Z" fill="#878787"/>
</g>
<g opacity="0.45">
<path d="M28.0889 18.2543L38.0017 32.1653V24.0881L28.0889 18.2543Z" fill="#878787"/>
</g>
<g opacity="0.8">
<path d="M38.002 24.0881V32.1653L47.9187 18.2543L38.002 24.0881Z" fill="#878787"/>
</g>
</svg>

<svg width="76" height="52" fill="none" xmlns="http://www.w3.org/2000/svg"><path d="M6.864 43.137c0 .166-.14.302-.308.302H.626c.148 1.46 1.25 2.791 2.802 2.791 1.06 0 1.846-.404 2.439-1.246.085-.116.214-.19.378-.12.09.039.152.12.167.213a.297.297 0 0 1-.039.206c-.596 1.036-1.784 1.545-2.95 1.545-1.994 0-3.417-1.778-3.417-3.68 0-1.902 1.423-3.68 3.418-3.68 1.995-.003 3.436 1.77 3.44 3.669Zm-.635-.288c-.128-1.459-1.25-2.79-2.801-2.79-1.551 0-2.654 1.331-2.802 2.79h5.603Zm7.832-3.237a.3.3 0 0 1 .296.295c0 .171-.128.295-.296.295h-1.59v6.214a.303.303 0 0 1-.296.295.3.3 0 0 1-.296-.295v-6.214h-1.527a.288.288 0 0 1-.296-.295c0-.147.128-.295.296-.295h1.527v-2.274c0-.144.098-.276.238-.3.199-.03.354.106.354.292v2.282h1.59Zm9.699 3.005v3.765a.3.3 0 0 1-.296.294.288.288 0 0 1-.296-.294v-3.765c0-1.27-.721-2.539-2.144-2.539-1.823 0-2.61 1.588-2.505 3.214 0 .043.02.233.02.252v2.826c0 .143-.098.275-.238.299-.199.03-.355-.105-.355-.291V34.01c0-.147.129-.295.296-.295a.3.3 0 0 1 .296.295v6.999c.51-.909 1.423-1.522 2.482-1.522 1.742 0 2.74 1.522 2.74 3.129Zm10.634.52c0 .166-.14.302-.308.302H28.15c.148 1.46 1.251 2.791 2.802 2.791 1.06 0 1.847-.404 2.44-1.246.085-.116.213-.19.377-.12.09.039.152.12.168.213.015.097-.012.152-.04.206-.596 1.036-1.784 1.545-2.949 1.545-1.995 0-3.417-1.778-3.417-3.68 0-1.902 1.422-3.68 3.417-3.68 1.999-.003 3.44 1.77 3.445 3.669Zm-.64-.288c-.128-1.459-1.25-2.79-2.801-2.79-1.551 0-2.654 1.331-2.802 2.79h5.604Zm7.918-2.961c0 .19-.105.295-.276.318-1.742.252-2.525 1.67-2.525 3.319v2.825c0 .144-.098.276-.238.3-.199.03-.355-.105-.355-.292v-6.44c0-.143.098-.275.238-.298.199-.031.355.105.355.291v1.312c.487-.823 1.465-1.607 2.482-1.607.148-.004.32.105.32.272Zm9.742 3.249c0 .166-.14.302-.308.302h-5.93c.147 1.46 1.25 2.791 2.8 2.791 1.06 0 1.848-.404 2.44-1.246.086-.116.215-.19.378-.12.09.039.152.12.168.213a.297.297 0 0 1-.04.206c-.595 1.036-1.784 1.545-2.949 1.545-1.995 0-3.417-1.778-3.417-3.68 0-1.902 1.422-3.68 3.417-3.68 1.995-.003 3.437 1.77 3.44 3.669Zm-.635-.288c-.129-1.459-1.251-2.79-2.802-2.79-1.55 0-2.654 1.331-2.802 2.79h5.604Zm10.209-2.887v6.454a.3.3 0 0 1-.297.295.288.288 0 0 1-.296-.295V45.19c-.487.974-1.36 1.669-2.462 1.669-1.762 0-2.74-1.522-2.74-3.129v-3.784c0-.147.129-.295.297-.295a.3.3 0 0 1 .296.295v3.785c0 1.269.72 2.538 2.143 2.538 1.995 0 2.462-1.86 2.462-3.913v-2.41c0-.17.172-.345.382-.283a.317.317 0 0 1 .215.299Zm15.001 2.631v3.785a.3.3 0 0 1-.296.295.288.288 0 0 1-.296-.295v-3.785c0-1.269-.72-2.515-2.143-2.515-1.785 0-2.463 1.902-2.463 3.38v2.92a.3.3 0 0 1-.296.295.288.288 0 0 1-.296-.295v-3.785c0-1.269-.72-2.515-2.143-2.515-1.804 0-2.548 1.417-2.482 3.3 0 .042.02.127 0 .147v2.845a.297.297 0 0 1-.242.299c-.198.03-.354-.105-.354-.291v-6.46c0-.143.097-.275.237-.298.2-.031.355.105.355.291v1.08c.51-.91 1.422-1.503 2.482-1.503 1.208 0 2.143.76 2.525 1.883.487-1.099 1.442-1.883 2.673-1.883 1.742 0 2.74 1.498 2.74 3.105Z" fill="#8D8D8D"/><path d="m38.002 11.893-9.913 4.49 9.913 5.834 9.909-5.833L38 11.893Z" fill="#878787" opacity=".6"/><path d="m28.089 16.384 9.913 5.833V0l-9.913 16.384Z" fill="#878787" opacity=".45"/><path d="M38.002 0v22.217l9.909-5.833L38.002 0Z" fill="#878787" opacity=".8"/><path d="m28.089 18.254 9.913 13.911v-8.077l-9.913-5.834Z" fill="#878787" opacity=".45"/><path d="M38.002 24.088v8.077l9.917-13.91-9.917 5.833Z" fill="#878787" opacity=".8"/></svg>
